X:1
T:Poor Jack
M:2/4
L:1/8
K:D
 AB f| dA Bc|
M:3/4
 d3/2 d/2 AF FD|F-DB,-G, DD|
M:2/4
 FD EA| d3/2 d/2 dA| BF AF| E2 D2-| D||
